packages/icons/src/components/Icon/assets/default-solid/star.svg

<svg width="20" height="20" viewBox="0 0 20 20" fill="none" xmlns="http://www.w3.org/2000/svg">
<path fill-rule="evenodd" clip-rule="evenodd" d="M10 3C10.3754 3 10.7139 3.22129 10.8581 3.56092L12.6065 7.68022L17.1449 8.03674C17.5191 8.06614 17.8385 8.31323 17.9545 8.66306C18.0705 9.01289 17.9603 9.39675 17.6752 9.63604L14.2174 12.5384L15.2739 16.8781C15.361 17.2359 15.2198 17.6099 14.9161 17.8261C14.6124 18.0423 14.2058 18.0582 13.8855 17.8665L10 15.541L6.11451 17.8665C5.79416 18.0582 5.38755 18.0423 5.08386 17.8261C4.78018 17.6099 4.63905 17.2359 4.72615 16.8781L5.78255 12.5384L2.32478 9.63604C2.0397 9.39675 1.92953 9.01289 2.04552 8.66306C2.16152 8.31323 2.48091 8.06614 2.85509 8.03674L7.39348 7.68022L9.14195 3.56092C9.2861 3.22129 9.62462 3 10 3Z" />
</svg>

<svg xmlns="http://www.w3.org/2000/svg" width="20" height="20" fill="none" viewBox="0 0 20 20">
    <path d="M10 3a.93.93 0 0 1 .858.56l1.749 4.12 4.538.357c.374.03.694.276.81.626a.9.9 0 0 1-.28.973l-3.458 2.902 1.057 4.34a.9.9 0 0 1-.358.948.95.95 0 0 1-1.03.04L10 15.542l-3.885 2.325a.95.95 0 0 1-1.031-.04.9.9 0 0 1-.358-.948l1.057-4.34-3.458-2.902a.9.9 0 0 1-.28-.973.93.93 0 0 1 .81-.626l4.538-.357 1.749-4.12A.93.93 0 0 1 10 3" clip-rule="evenodd"/>
</svg>
